X: 33914
T: Red Shoes
R: reel
M: 4/4
K: Amixolydian
A|"A"EA,CA, CEA,C|"G"DB,G,B, GB,G,B,|"A"EA,CA, CEA,C|"G"DB,GB, "A"A,/A,/A, A,A|
"A"EA,CA, CEA,C|"G"DB,G,B, GB,G,B,|"Am"A,B,=CD "Em"EFGE|"G"DG,B,D "A"EA,A,||
a|"A"eAcA cacA|"G"gdBG Bcda|"A"eAcA cacA|"G"dBgB "A"A/A/A Aa|
"A"eAcA cacA|"G"gdBG Bcdg|"A"af"Em"ge "D"fd"A"ec|"G"dBgB "A"A/A/A A||

